public/images/placeofinterrests/bay-a.svg

<?xml version="1.0" encoding="UTF-8" standalone="no"?>
<svg width="104px" height="52px" viewBox="0 0 104 52" version="1.1" xmlns="http://www.w3.org/2000/svg" xmlns:xlink="http://www.w3.org/1999/xlink">
    <!-- Generator: Sketch 42 (36781) - http://www.bohemiancoding.com/sketch -->
    <title>Bay Area</title>
    <desc>Created with Sketch.</desc>
    <defs></defs>
    <g id="Page-1" stroke="none" stroke-width="1" fill="none" fill-rule="evenodd">
        <g id="Bay-Area">
            <polygon id="Path-4" fill="#FFFFFF" points="0 2.94102556 5.88205113 51.4679473 98 49 104 0"></polygon>
            <path d="M61.2099846,26.2 L61.2099846,29.968 L71.7820159,29.968 L71.7820159,26.2 L61.2099846,26.2 Z M81.4489922,23.1340156 L79.4299844,29.1939844 L83.4710078,29.1939844 L81.4489922,23.1340156 Z M79.6340156,17.2300156 L79.7780156,17.2780156 L83.1140156,17.2780156 L83.2580156,17.2300156 L83.276,17.2780156 L83.324,17.2780156 L83.324,17.4190078 L90.0769922,37.69 L90.128,37.69 L90.128,37.84 L90.176,37.987 L90.128,38.002 L90.128,38.05 L89.9809922,38.05 L89.8340156,38.098 L89.8190078,38.05 L86.5819844,38.05 L86.4379844,38.098 L86.4230078,38.05 L86.372,38.05 L86.372,37.897 L84.7220156,32.9500161 L78.1790078,32.9500161 L76.532,37.888 L76.532,38.05 L76.4809922,38.05 L76.4660156,38.098 L76.3220161,38.05 L73.076,38.05 L73.0580161,38.098 L72.9140161,38.05 L72.764,38.05 L72.764,37.999 L72.716,37.984 L72.764,37.831 L72.764,37.69 L72.812,37.69 L79.568,17.428 L79.568,17.2780156 L79.6190078,17.2780156 L79.6340156,17.2300156 Z" id="-A" fill="#18252D"></path>
            <path d="M17.3017145,17.1820156 L21.0697145,17.1820156 L21.0697145,17.188 C24.8396989,17.2837129 27.8617145,20.373248 27.8617145,24.1660156 C27.8617145,24.4302725 27.8450739,24.6894082 27.8167223,24.9459844 C29.8822262,26.1607998 31.2697145,28.4044482 31.2697145,30.9699839 C31.2697145,34.7626563 28.2354098,37.8515312 24.4657145,37.948 L24.4657145,37.954 L17.3017145,37.954 L17.3017145,17.1820156 Z M21.0697145,20.956 L21.0697145,27.388 C22.7615221,27.2956484 24.1057145,25.89296 24.1057145,24.1660156 C24.1057145,22.4512324 22.7615221,21.0481602 21.0697145,20.956 Z M26.3527223,28.5070078 C25.1108981,30.0744961 23.2112507,31.089728 21.0697145,31.144 L21.0697145,34.1980161 L24.2857145,34.1980161 C26.0600182,34.1980161 27.5017145,32.75696 27.5017145,30.9699839 C27.5017145,29.9818882 27.0558268,29.0976318 26.3527223,28.5070078 Z M40.3615637,23.1340156 L38.3425559,29.1939844 L42.3835793,29.1939844 L40.3615637,23.1340156 Z M38.5465871,17.2300156 L38.6905871,17.2780156 L42.0265871,17.2780156 L42.1705871,17.2300156 L42.1885715,17.2780156 L42.2365715,17.2780156 L42.2365715,17.4190078 L48.9895637,37.69 L49.0405715,37.69 L49.0405715,37.84 L49.0885715,37.987 L49.0405715,38.002 L49.0405715,38.05 L48.8935637,38.05 L48.7465871,38.098 L48.7315793,38.05 L45.4945559,38.05 L45.3505559,38.098 L45.3355793,38.05 L45.2845715,38.05 L45.2845715,37.897 L43.6345871,32.9500161 L37.0915793,32.9500161 L35.4445715,37.888 L35.4445715,38.05 L35.3935637,38.05 L35.3785871,38.098 L35.2345876,38.05 L31.9885715,38.05 L31.9705876,38.098 L31.8265876,38.05 L31.6765715,38.05 L31.6765715,37.999 L31.6285715,37.984 L31.6765715,37.831 L31.6765715,37.69 L31.7245715,37.69 L38.4805715,17.428 L38.4805715,17.2780156 L38.5315793,17.2780156 L38.5465871,17.2300156 Z M47.0914285,17.228 L47.0914285,17.588 L47.1604207,17.588 L52.1914285,27.6590078 L52.1914285,38 L55.9474285,38 L55.9474285,27.6649922 L60.9814129,17.588 L61.0474285,17.588 L61.0474285,17.228 L57.2914285,17.228 L57.2914285,17.3689922 L56.9224363,18.1070078 L54.0754285,23.8070078 L50.8474285,17.3630078 L50.8474285,17.228 L47.0914285,17.228 Z" id="Bay" fill="#18252D"></path>
        </g>
    </g>
</svg>

<svg width="104" height="52" viewBox="0 0 104 52" xmlns="http://www.w3.org/2000/svg"><title>Bay Area</title><g fill="none" fill-rule="evenodd"><path fill="#FFF" d="M0 2.941l5.882 48.527L98 49l6-49z"/><path d="M61.21 26.2v3.768h10.572V26.2H61.21zm20.239-3.066l-2.019 6.06h4.041l-2.022-6.06zm-1.815-5.904l.144.048h3.336l.144-.048.018.048h.048v.141l6.753 20.271h.051v.15l.048.147-.048.015v.048h-.147l-.147.048-.015-.048h-3.237l-.144.048-.015-.048h-.051v-.153l-1.65-4.947h-6.543l-1.647 4.938v.162h-.051l-.015.048-.144-.048h-3.246l-.018.048-.144-.048h-.15v-.051l-.048-.015.048-.153v-.141h.048l6.756-20.262v-.15h.051l.015-.048zM17.302 17.182h3.768v.006a6.976 6.976 0 0 1 6.747 7.758 6.984 6.984 0 0 1 3.453 6.024c0 3.793-3.035 6.882-6.804 6.978v.006h-7.164V17.182zm3.768 3.774v6.432a3.218 3.218 0 0 0 3.036-3.222 3.215 3.215 0 0 0-3.036-3.21zm5.283 7.551a6.947 6.947 0 0 1-5.283 2.637v3.054h3.216a3.22 3.22 0 0 0 3.216-3.228c0-.988-.446-1.872-1.15-2.463zm14.009-5.373l-2.02 6.06h4.042l-2.022-6.06zm-1.815-5.904l.144.048h3.336l.144-.048.018.048h.048v.141L48.99 37.69h.05v.15l.049.147-.048.015v.048h-.147l-.147.048-.015-.048h-3.237l-.144.048-.015-.048h-.051v-.153l-1.65-4.947h-6.543l-1.647 4.938v.162h-.051l-.015.048-.144-.048h-3.246l-.018.048-.144-.048h-.15v-.051l-.048-.015.048-.153v-.141h.048l6.756-20.262v-.15h.05l.016-.048zm8.544-.002v.36h.07l5.03 10.071V38h3.756V27.665l5.034-10.077h.066v-.36h-3.756v.141l-.369.738-2.847 5.7-3.228-6.444v-.135h-3.756z" fill="#18252D"/></g></svg>
